X:1
T:The Sweet Voice
T:William Howard Doane
T:The Sweet Voice
T:Public Domain
T:Public Domain
T:Public Domain
C:William Howard Doane
Z:Public Domain
%%score ( 1 2 ) ( 3 4 )
L:1/8
M:3/4
K:Eb
V:1 treble 
V:2 treble 
V:3 bass 
V:4 bass 
V:1
 E"^Duet"[EF] | [EG]2 [EG]2 [FA]2 | [GB]4 [FA][EG] | [EAc]2 [EAc]2 [EAc]2 | [EGB]4 [Ac][Fd] | %5
w: 1.~When the|es of youth|all their beau-|ty dis- play,|And the world|
w: 2.~When we|ther with friends|in the tem-|ple of prayer,|And the eye|
w: 3.~Let us|in our youth,|and as long|as we live,|Our af- fect-|
w: 4.~When the|time is o-|ver, and sum-|mer is past,|When the snow-|
 [Ge]2 [Bd]2 [Ac]2 | [GB]4 [EG][FA] | [GB]2 [FA]2 [EG]2 | [DF]4 E[EF] | [EG]2 [EG]2 [FA]2 | %10
w: seems as bright|as a glad|sum- mer day,|When our hearts|as hap- py|
w: of our Fa-|ther looks down|on us there;|When we min-|our voic- es|
w: ion, our wor-|ship, to Je-|sus we’ll give;|Then, what- ev-|our tri- als|
w: flakes a- round|us are fall-|ing at last,|To the spir-|how joy- ful|
 [GB]3 [FA] [EG]2 | [Ac]2 [Ac]2 [Ac]2 | [GB]4 [GB][GB] | [Ge]2 [Bd]2 [Ac]2 | [GB]2 [Ge]2 [EG]2 | %15
w: as hap- py|can be, There’s|a sweet voice|that whis- pers,|“O come un-|
w: with hearts glad|and free, Still|the call is|re- peat- ed,|“O come un-|
w: or con- flicts|may be, Still|that sweet voice|will whis- per,|“O come un-|
w: the mess- age|will be! “Come|and rest you|for- ev- er|in glo- ry|
 [DB]2 [DA]2 [DF]2 | E6 ||"^Refrain" [DF]2 [CA]2 [B,G]2 | [G,E]4 z2 | [DF]2 [Ac]2 [GB]2 | %20
w: to Me.” *|||||
w: to Me.” Soft-|ly|low, soft- ly|and|low, Tell- ing|
w: to Me.” *|||||
w: with Me.” *|||||
 [EG]4 z2 | [Ac]2 [Ac]2 [Ac]2 | [ce]3 [Bd] [Ac]2 | [GB]2 [FA]2 [EG]2 | [DF]6 | [DF]2 [CA]2 [B,G]2 | %26
w: ||||||
w: of|rest in its|love- breath- ing|tones; Soft- ly|and|low, soft- ly|
w: ||||||
w: ||||||
 [G,E]4 z2 | [DF]2 [Ac]2 [GB]2 | [EG]4 z2 | [Ac]2 [Ac]2 [Ac]2 | [ce]3 [Bd] [Ac]2 | %31
w: |||||
w: and|low, Sav- ior,|dear|Sav- ior, that|voice is Thine|
w: |||||
w: |||||
 [GB]2 [Ac]2 [Ad]2 | [Ge]6 |] %33
w: ||
w: own. * *||
w: ||
w: ||
V:2
 E x | x6 | x6 | x6 | x6 | x6 | x6 | x6 | x4 E x | x6 | x6 | x6 | x6 | x6 | x6 | x6 | E6 || x6 | %18
w: ros-||||||||are||||||||||
w: ga-||||||||gle||||||||and||
w: come||||||||er||||||||||
w: spring-||||||||it||||||||||
 x6 | x6 | x6 | x6 | x6 | x6 | x6 | x6 | x6 | x6 | x6 | x6 | x6 | x6 | x6 |] %33
w: |||||||||||||||
w: |||||||||||||||
w: |||||||||||||||
w: |||||||||||||||
V:3
 [E,G,][E,A,] | [E,B,]2 [E,B,]2 [E,B,]2 | (E2 B,2) [E,B,][E,B,] | [A,,A,]2 (A,,B,,) (C,D,) | %4
w: ~ ~|~ ~ ~|~ * ~ ~|~ ~ * ~ *|
 [E,G,]4 [B,,B,][B,,B,] | [E,B,]2 [E,E]2 [E,E]2 | [E,E]4 [E,B,][E,B,] | [E,E]2 [D,B,]2 [E,B,]2 | %8
w: ~ ~ ~|~ ~ ~|~ ~ ~|~ ~ ~|
 [B,,B,]4 [E,G,][E,A,] | [E,B,]2 [E,B,]2 [E,B,]2 | [E,E]3 [E,B,] [E,B,]2 | %11
w: ~ ~ ~|~ ~ ~|~ ~ ~|
 [A,,E]2 (A,,B,,) (C,D,) | [E,E]4 [E,E][E,E] | [E,B,]2 [E,B,]2 [E,E]2 | [E,E]2 [E,B,]2 [E,B,]2 | %15
w: ~ ~ * ~ *|~ ~ ~|~ ~ ~|~ ~ Hear|
 [B,,B,]2 [B,,B,]2 [B,,B,]2 | [E,G,]6 || [B,,B,][B,,B,] [B,,B,][B,,B,] [B,,B,][B,,B,] | %18
w: the Sav- ior|call-|ing thee, Hear the Sav- ior|
 [E,B,]4 z2 | [B,,B,][B,,B,] [B,,B,][B,,B,] [B,,B,][B,,B,] | [E,B,]4 z2 | [A,,E]2 [A,,E]2 [A,,E]2 | %22
w: call-|ing thee, ~ ~ ~ ~|~|~ ~ ~|
 [A,,E]3 [A,,E] [A,,E]2 | [E,E]2 [D,B,]2 [E,B,]2 | [B,,B,]6 | %25
w: ~ ~ Hear|the Sav- ior|call-|
 [B,,B,][B,,B,] [B,,B,][B,,B,] [B,,B,][B,,B,] | [E,B,]4 z2 | %27
w: ing thee, Hear the Sav- ior|call-|
 [B,,B,][B,,B,] [B,,B,][B,,B,] [B,,B,][B,,B,] | [E,B,]4 z2 | [A,,E]2 [A,,E]2 [A,,E]2 | %30
w: ing thee, * * * *|||
 [A,,E]3 [A,,E] [A,,E]2 | [B,,E]2 [B,,B,]2 [B,,B,]2 | [E,B,]6 |] %33
w: |||
V:4
 x2 | x6 | E,4 x2 | x2 A,2 A,2 | x6 | x6 | x6 | x6 | x6 | x6 | x6 | x2 E2 E2 | x6 | x6 | x6 | x6 | %16
w: ||~|~ ~||||||||~ ~|||||
 x6 || x6 | x6 | x6 | x6 | x6 | x6 | x6 | x6 | x6 | x6 | x6 | x6 | x6 | x6 | x6 | x6 |] %33
w: |||||||||||||||||

